X:1
T: Garryowen
N: from the playing of Sally Sloane
Z:Ian Hayden 2017
M:6/8
L:1/8
K:D
dc|BAG FED|F2F Fdc|BAG FED|E2E Edc|
|BAG FED|F2F F2A|ABc dAF|E3-E:|
F2|A2F A2F|A2F Adc|B2G B2G|B2G B2c|
|d2e f2e|dcB A2F|ABc dAF|1 E2E EFG:|2 E3-Edc|]
